X: 10126
T: Dillon Brown
R: reel
M: 4/4
K: Gmajor
BGAG EGDG|BGAB cedc|BGAG EGDc|BGAG EGGA|
BGAG ED D2|BGAB cedc|BGAG EGDc|dBAG EG G2||
B3d edgd|edgd eggd|B3d edgd|cABG EG G2|
B3d edgd|edgd egga|bage dgBd|cABG EG G2||

